X: 1
T: Fireside Reel
B: SCD
Z: John Chambers <jc:trillian.mit.edu>
B: the Drummond Castle Manuscript (in the possession of the Earl of Ancaster at Drummond Castle),
B: inscribed " A Collection of the best Highland Reels written by David Young, W.M. & Accomptant" (1734)
B: the Bodleian Manuscript (in the Bodleian Library, Oxford), inscribed " A Collection of the
B: Newest Country Dances Performed in Scotland written at Edinburgh by D.A. Young, W.M. 1740."
R: march
M: C|
L: 1/4
K: EDor
"B7"B\
|  "Em"E>F GF \
| ED B2 \
| "D"BA AG/A/ \
| "B7"BA AB \
|  "Em"E>F GF \
| ED "B7"B>A \
| "Em"GE "D"FD \
| "Em"E3 ||
"D"F \
|  "G"G>A Bg/f/ \
| ed B2 \
| "D"BA AG/A/ \
| "B7"BA AB \
|  "G"G>A Bg/f/ \
| ed "B7"B>A \
| "Em"GE "D"FD \
| "Em"E3 |]
